static/assets/images/addons/logos/pgbouncer.svg

<svg width="16" height="16" viewBox="0 0 16 16" fill="none" xmlns="http://www.w3.org/2000/svg">
<g clip-path="url(#clip0_703_2663)">
<path d="M10.5266 8.17988C10.6409 8.75134 10.9836 9.32273 11.5551 9.77988C11.4408 9.77988 11.3266 9.89419 11.098 9.89419C10.6409 10.0085 10.184 10.0085 9.61257 10.0085C8.92682 10.0085 8.24092 9.89418 7.66947 9.55133C6.98377 9.20848 6.52682 8.63704 6.18397 8.06559C5.84112 7.49418 5.61242 6.80848 5.49817 6.12273C5.49817 5.89418 5.38377 5.77988 5.38377 5.55133C5.38377 5.55133 5.38377 5.55133 5.38377 5.43703C5.38377 5.55133 5.38387 5.66559 5.49817 5.77988C5.61242 6.35133 5.72652 6.92274 5.84077 7.49418C5.95507 7.95133 6.18377 8.40849 6.52662 8.75134C6.86947 9.20849 7.09817 9.77988 7.21242 10.3513C7.21242 10.5799 7.32682 10.8085 7.32682 10.9227C7.21257 10.9227 6.98407 10.8085 6.86982 10.8085C6.41267 10.6942 5.95532 10.5799 5.49817 10.3513C5.26957 10.237 5.15532 10.237 4.92673 10.1227C4.92673 10.1227 4.81233 10.1227 4.81233 10.0085C4.81233 9.66558 4.69793 9.20848 4.69793 8.86558C4.58365 8.17988 4.58409 7.37988 4.58409 6.69418C4.58409 6.35133 4.58365 6.00848 4.69793 5.66558V5.77988C4.58365 6.12274 4.58409 6.57988 4.58409 6.92273C4.58409 7.49418 4.46981 7.95133 4.58409 8.52273C4.58409 8.97989 4.58365 9.43703 4.69793 9.89419C4.69793 9.89419 4.69793 9.89419 4.69793 10.0085C4.58365 9.89419 4.46958 9.89418 4.3553 9.77988C4.01244 9.66558 3.66981 9.43703 3.44124 9.32273C3.44124 9.32273 3.32684 9.32273 3.32684 9.20848C3.32684 8.75133 3.21255 8.17988 3.32684 7.72273C3.32684 7.15133 3.44079 6.69418 3.55507 6.12273V6.00848C3.55507 5.89419 3.55507 6.00848 3.55507 6.00848C3.21222 7.03703 3.09804 8.06559 3.09804 9.09418L2.98365 8.97989C2.64079 8.75134 2.29804 8.52273 1.95519 8.17988L1.84079 8.06559C1.84079 7.37989 1.84101 6.69418 2.06958 6.00848C1.9553 6.12274 1.95507 6.23703 1.84079 6.46558C1.84079 6.57988 1.72695 6.80848 1.72695 6.92273C1.72695 7.03703 1.61255 7.26558 1.61255 7.37988C1.61255 7.49418 1.61244 7.72273 1.49815 7.83703C1.38387 7.72273 1.26936 7.60848 1.26936 7.37988C1.04079 6.92273 0.926612 6.46558 0.812327 6.00848C0.698042 4.97989 0.926612 3.83703 1.38376 2.92274C1.72661 2.23703 2.29793 1.6656 2.98365 1.20846C3.66936 0.75132 4.35541 0.52275 5.04112 0.294176C5.38397 0.179891 5.84112 0.179892 6.18397 0.179892C6.64112 0.179892 7.09792 0.294179 7.55507 0.408465H7.66947C7.32662 0.179893 6.98377 0.0656056 6.52662 -0.04868C6.64092 -0.04868 6.64112 -0.04868 6.75542 -0.04868C7.21257 -0.04868 7.55552 -0.162964 8.01267 -0.162964C8.46982 -0.162964 8.92652 -0.162964 9.26937 -0.162964C9.72652 -0.162964 10.1839 -0.0486818 10.641 0.0656041C11.441 0.17989 12.1265 0.52275 12.6979 1.09418C13.2694 1.55132 13.7266 2.23703 13.9552 2.92274C14.0695 3.37989 14.0695 3.83703 13.9552 4.17989C13.8409 4.40846 13.8408 4.63703 13.8408 4.8656C13.8408 4.97989 13.8409 5.09418 13.9552 5.20848C13.6123 5.09418 13.1552 5.09418 12.8123 5.32273C12.3552 5.55133 12.0123 5.77988 11.6695 6.12273C11.7838 6.00848 11.8984 5.89418 12.0127 5.89418C12.3555 5.66558 12.8127 5.55133 13.1555 5.43703C13.4984 5.32273 13.8411 5.43703 14.184 5.66558C14.184 5.66558 14.1841 5.66559 14.2984 5.77988C14.4127 5.89418 14.4123 6.00848 14.5266 6.12273C13.9552 6.00848 13.4983 6.12273 13.0411 6.46558C12.9268 6.57988 12.6984 6.69418 12.5841 6.80848H12.6979C13.0408 6.57988 13.498 6.46558 13.9552 6.35133C14.1838 6.35133 14.5268 6.35133 14.7554 6.35133C14.7554 6.35133 14.8698 6.35133 14.8698 6.46558C14.9841 6.57988 15.098 6.80848 15.098 6.92273C15.098 6.92273 15.098 6.92273 15.098 7.03703C14.4123 7.03703 13.8409 7.26558 13.3838 7.60848C13.7266 7.37988 14.0695 7.26558 14.5266 7.26558C14.7552 7.26558 14.9839 7.26558 15.2124 7.26558C15.3267 7.49418 15.4408 7.83704 15.5551 8.06559C15.0979 8.06559 14.5267 8.17988 14.0696 8.52273C14.4124 8.40848 14.8696 8.29418 15.2124 8.29418C15.441 8.29418 15.4408 8.29418 15.5551 8.52273C15.5551 8.75133 15.6695 8.86559 15.6695 9.09418C15.2123 9.09418 14.8694 9.20848 14.4122 9.55133C14.5265 9.55133 14.5267 9.55133 14.641 9.43703C14.9839 9.32273 15.2122 9.32273 15.5551 9.32273H15.6695C15.6695 9.55133 15.6696 9.89419 15.7839 10.1227C15.5553 10.1227 15.2122 10.1227 14.9836 10.237C14.8694 10.237 14.7553 10.3513 14.641 10.3513C14.7553 10.3513 14.7555 10.3513 14.8698 10.3513C15.0984 10.3513 15.4409 10.3513 15.6695 10.3513C15.6695 10.5799 15.6695 10.8085 15.6695 11.037C15.3266 11.037 15.0983 11.037 14.7554 11.037C15.0983 11.037 15.3265 11.037 15.5551 11.1513C15.5551 11.3799 15.4412 11.7227 15.4412 11.9513H14.7554L15.4412 12.0656C15.327 12.2942 15.3268 12.5227 15.3268 12.8656H14.9836L15.3268 12.9799C15.2126 13.2085 15.2123 13.3227 15.098 13.5513C15.098 13.6656 15.0979 13.6656 14.9836 13.6656C14.8694 13.6656 14.9841 13.6656 14.8698 13.6656C14.7555 13.6656 14.7553 13.6656 14.641 13.6656L14.8698 13.7799C14.8698 13.8942 14.7554 14.0085 14.7554 14.0085C14.4126 14.5799 13.8408 15.037 13.2694 15.3799C12.9265 15.6085 12.4698 15.7227 12.0127 15.6085C11.4412 15.6085 10.8694 15.2656 10.4122 14.9227C10.1836 14.6942 10.0696 14.3513 10.0696 14.1227C10.0696 13.437 10.0694 12.7513 10.4122 12.1799C10.5265 11.9513 10.641 11.7227 10.641 11.3799C10.641 11.2656 10.641 11.037 10.641 10.9227C10.641 10.6942 10.6412 10.6942 10.8698 10.6942C11.0984 10.6942 11.327 10.6942 11.4412 10.8085C11.6698 10.8085 11.8979 10.8085 12.1265 10.6942H12.2409C12.3552 10.6942 12.3553 10.6942 12.3553 10.8085C12.3553 10.9227 12.3553 10.9227 12.3553 11.037C12.241 11.2656 12.127 11.4942 12.0127 11.7227C11.7841 12.0656 11.6694 12.5227 11.5551 12.8656C11.4408 13.0942 11.5551 13.437 11.5551 13.6656C11.5551 13.7799 11.6696 13.8942 11.7839 14.0085V14.1227C11.6696 14.237 11.5554 14.3513 11.3268 14.4656C11.3268 14.4656 11.2124 14.4656 11.2124 14.5799H11.3268C11.6697 14.4656 12.0123 14.237 12.2409 13.8942C12.4695 13.5513 12.5836 13.2085 12.6979 12.7513C12.8122 12.2942 12.8123 11.9513 12.8123 11.4942C12.8123 11.037 12.6983 10.5799 12.4697 10.1227C12.3554 9.89419 12.1268 9.66558 11.8983 9.55133C11.4411 9.32273 11.0983 8.97989 10.7554 8.52273C10.6411 8.52273 10.5266 8.40848 10.5266 8.17988ZM7.21242 4.0656C7.32672 4.17989 7.44077 4.29418 7.55507 4.40846C7.66937 4.52275 7.89837 4.52275 8.01267 4.40846C8.01267 4.40846 8.01267 4.40846 8.01267 4.29417C8.01267 4.17989 7.89827 4.0656 7.89827 4.0656C7.66967 4.0656 7.44102 3.95132 7.21242 4.0656Z" fill="#1971BD"/>
</g>
<defs>
<clipPath id="clip0_703_2663">
<rect width="16" height="16" fill="white"/>
</clipPath>
</defs>
</svg>

<svg xmlns="http://www.w3.org/2000/svg" width="16" height="16" fill="none" xmlns:v="https://vecta.io/nano"><g clip-path="url(#A)"><path d="M10.527 8.18c.114.571.457 1.143 1.028 1.6-.114 0-.229.114-.457.114-.457.114-.914.114-1.485.114-.686 0-1.372-.114-1.943-.457-.686-.343-1.143-.914-1.485-1.486s-.572-1.257-.686-1.943c0-.229-.114-.343-.114-.571v-.114c0 .114 0 .229.114.343l.343 1.714c.114.457.343.914.686 1.257.343.457.572 1.029.686 1.6 0 .229.114.457.114.571-.114 0-.343-.114-.457-.114-.457-.114-.914-.229-1.372-.457-.229-.114-.343-.114-.571-.229 0 0-.114 0-.114-.114 0-.343-.114-.8-.114-1.143-.114-.686-.114-1.486-.114-2.171 0-.343 0-.686.114-1.029v.114c-.114.343-.114.8-.114 1.143 0 .571-.114 1.029 0 1.6 0 .457 0 .914.114 1.371v.114c-.114-.114-.228-.114-.343-.229-.343-.114-.685-.343-.914-.457 0 0-.114 0-.114-.114 0-.457-.114-1.029 0-1.486 0-.571.114-1.029.228-1.6v-.114c0-.114 0 0 0 0-.343 1.029-.457 2.057-.457 3.086l-.114-.114c-.343-.229-.686-.457-1.028-.8l-.114-.114c0-.686 0-1.371.229-2.057-.114.114-.115.229-.229.457 0 .114-.114.343-.114.457s-.114.343-.114.457 0 .343-.114.457c-.114-.114-.229-.229-.229-.457-.229-.457-.343-.914-.457-1.371-.114-1.029.114-2.171.571-3.086.343-.686.914-1.257 1.6-1.714S4.355.523 5.041.294C5.384.18 5.841.18 6.184.18c.457 0 .914.114 1.371.229h.114C7.327.18 6.984.066 6.527-.049h.229c.457 0 .8-.114 1.257-.114h1.257c.457 0 .915.114 1.372.229.8.114 1.486.457 2.057 1.029.571.457 1.029 1.143 1.257 1.829.114.457.114.914 0 1.257-.114.229-.114.457-.114.686 0 .114 0 .229.114.343-.343-.114-.8-.114-1.143.114-.457.229-.8.457-1.143.8.114-.114.229-.229.343-.229.343-.229.8-.343 1.143-.457s.686 0 1.028.229c0 0 0 0 .114.114s.114.229.228.343a1.73 1.73 0 0 0-1.485.343c-.114.114-.343.229-.457.343h.114c.343-.229.8-.343 1.257-.457h.8s.114 0 .114.114c.114.114.228.343.228.457v.114c-.686 0-1.257.229-1.714.571a1.93 1.93 0 0 1 1.143-.343h.686c.114.229.228.571.343.8-.457 0-1.028.114-1.485.457.343-.114.8-.229 1.143-.229.229 0 .228 0 .343.229 0 .229.114.343.114.571-.457 0-.8.114-1.257.457.114 0 .114 0 .229-.114.343-.114.571-.114.914-.114h.114c0 .229 0 .571.114.8-.229 0-.572 0-.8.114-.114 0-.228.114-.343.114h.229.8v.686h-.914c.343 0 .571 0 .8.114 0 .229-.114.571-.114.8h-.686l.686.114c-.114.229-.114.457-.114.8h-.343l.343.114c-.114.229-.114.343-.229.571 0 .114 0 .114-.114.114s.001 0-.114 0h-.229l.229.114c0 .114-.114.229-.114.229-.343.571-.915 1.029-1.486 1.371-.343.229-.8.343-1.257.229-.572 0-1.143-.343-1.601-.686-.229-.229-.343-.571-.343-.8 0-.686 0-1.371.343-1.943.114-.229.229-.457.229-.8v-.457c0-.229 0-.229.229-.229s.457 0 .571.114c.229 0 .457 0 .685-.114h.114c.114 0 .114 0 .114.114v.229l-.343.686c-.229.343-.343.8-.458 1.143-.114.229 0 .571 0 .8 0 .114.115.229.229.343v.114c-.114.114-.228.229-.457.343 0 0-.114 0-.114.114h.114c.343-.114.685-.343.914-.686s.343-.686.457-1.143.114-.8.114-1.257-.114-.914-.343-1.371a1.38 1.38 0 0 0-.571-.571c-.457-.229-.8-.571-1.143-1.029-.114 0-.229-.114-.229-.343zM7.212 4.066l.343.343a.35.35 0 0 0 .458 0v-.114c0-.114-.114-.229-.114-.229-.229 0-.457-.114-.686 0z" fill="#1971bd"/></g><defs><clipPath id="A"><path fill="#fff" d="M0 0h16v16H0z"/></clipPath></defs></svg>
